nova/resources/svg/fluent/swipe-down.svg

<svg viewBox="0 0 24 24" fill="none" xmlns="http://www.w3.org/2000/svg">
<path d="M12 5.99664C12.3797 5.99664 12.6935 6.27855 12.7432 6.64432L12.75 6.74601V19.4403L14.9697 17.2237C15.2359 16.9576 15.6526 16.9335 15.9462 17.1511L16.0303 17.2237C16.2966 17.4897 16.3208 17.906 16.1029 18.1994L16.0303 18.2835L12.5303 21.7805C12.2641 22.0466 11.8474 22.0707 11.5538 21.8531L11.4697 21.7805L7.96967 18.2835C7.67678 17.9908 7.67678 17.5163 7.96967 17.2237C8.23594 16.9576 8.6526 16.9335 8.94621 17.1511L9.03033 17.2237L11.25 19.4403V6.74601C11.25 6.33214 11.5858 5.99664 12 5.99664ZM12 2C14.7614 2 17 4.23669 17 6.99579C17 9.13942 15.6488 10.9677 13.7509 11.6767L13.7507 10.0246C14.7965 9.41982 15.5 8.28989 15.5 6.99579C15.5 5.06442 13.933 3.49874 12 3.49874C10.067 3.49874 8.5 5.06442 8.5 6.99579C8.5 8.2903 9.20396 9.42053 10.2502 10.0252L10.2501 11.6771C8.35172 10.9684 7 9.1398 7 6.99579C7 4.23669 9.23858 2 12 2Z" fill="currentColor"/>
</svg>

<svg viewBox="0 0 24 24" xmlns="http://www.w3.org/2000/svg"><path d="M12 5.997a.75.75 0 01.743.647l.007.102V19.44l2.22-2.216a.75.75 0 01.976-.073l.084.073a.75.75 0 01.073.975l-.073.084-3.5 3.498a.75.75 0 01-.976.072l-.084-.072-3.5-3.498a.749.749 0 01.976-1.132l.084.073 2.22 2.216V6.746a.75.75 0 01.75-.75zM12 2c2.761 0 5 2.237 5 4.996a4.998 4.998 0 01-3.25 4.68v-1.651A3.499 3.499 0 0012 3.499a3.499 3.499 0 00-1.75 6.526v1.652A4.998 4.998 0 017 6.996 4.998 4.998 0 0112 2z" fill="currentColor" fill-rule="nonzero"/></svg>
